X:1
T:Crested Hens
R:Air
M:3/4
Q:180
K:D
E3G FE|B4 Bc|dc Be dc|dc BA GF|
E3G FE|B4 Bc|dc BA GA|1 B3G FD:|2 B4ef|]
gB Bg gB|=c4ef|gf ag fe|^d2e2 f2|
gB Bg gB|=c4ef|gf ag fd |1 e3eef:|2 e3G FD|]
</abc>
